X:1
T:The Clumsy Lover  "CYMRU"
M:6/8
L:1/8
Q:80
C:P.M. A Stewart
S:Seconds
K:HP
|: | {g}ce{A}e{g}ec{d}A | \
{g}df{e}fadf | \
{g}ce{A}e{g}ec{d}A |
{g}dcd{g}Bed | | \
{g}ce{A}e{g}ec{d}A | \
{g}df{e}fadf |
{g}ce{A}ed{e}G{d}B | \
{g}B{d}A{e}A{GAG}A2 :: \
d |
{g}ca{g}a{g}aec | \
{g}da{g}a{g}afd | \
{g}ca{g}a{g}aec |
{g}dcd{g}Bed | | \
{g}ca{g}a{g}aec | \
{g}da{g}a{g}afd |
{g}ce{A}ed{e}G{d}B | \
{g}B{d}A{e}A{GAG}A2 :: \
| d2 |
{g}c3-c3 | \
{g}d3-d3 | \
{g}c3-c3 |
{g}B3-B3 | | \
{g}c3-c3 | \
{g}d3-d3 |
{g}c3{g}B3 | \
{g}A3-A2:| |]
d |
{g}ca{g}acac | \
{g}da{g}adac | \
{g}ca{g}acac |
{g}dcd{g}Bed | | \
{g}ca{g}acac | \
{g}da{g}adac |
{g}ce{A}ed{e}G{d}B | \
{g}B{d}A{e}A{GAG}A2d :: \
| d |
{g}c3-c3 | \
{g}d3-d3 | \
{g}c3-c3 |
{g}d3e3 | \
{g}f3a3 | | \
{g}c3-c3 |
{g}d3-d3 | \
{g}c3{g}B3 | \
{g}A3-A2 :|
